dist/img/svg/services/tabs/ventilation.svg

<svg width="33" height="33" viewBox="0 0 33 33" fill="none" xmlns="http://www.w3.org/2000/svg">
<path d="M16.5002 14.7344C15.5237 14.7316 14.7298 15.5209 14.7271 16.4974C14.7243 17.4738 15.5136 18.2676 16.4902 18.2703H16.4938C17.4703 18.2721 18.2634 17.482 18.2652 16.5056C18.2669 15.5292 17.4768 14.7362 16.5002 14.7344V14.7344Z" fill="white"/>
<path d="M16.5074 11.7876H16.5032C13.8991 11.7827 11.7842 13.8896 11.7793 16.4934C11.7744 19.0972 13.8815 21.2119 16.4856 21.2168C17.742 21.2327 18.9503 20.734 19.8298 19.8366C21.1809 18.491 21.5877 16.4639 20.8601 14.7013C20.1326 12.9388 18.4143 11.7886 16.5074 11.7876V11.7876ZM16.4956 19.4488H16.4897C14.8588 19.4472 13.5378 18.1244 13.5387 16.4936C13.5395 14.8629 14.8618 13.5414 16.4927 13.5414C18.1235 13.5414 19.4458 14.8629 19.4467 16.4936C19.4474 18.1244 18.1264 19.4472 16.4956 19.4488Z" fill="white"/>
<path d="M5.66887 20.6221C6.43754 19.8373 7.33701 19.1924 8.32698 18.7162C9.0934 18.2889 9.9627 18.081 10.8395 18.1151C10.2519 16.0783 10.8125 13.8831 12.3047 12.3774C10.6225 10.8148 8.47776 9.84143 6.19399 9.60403C4.76978 9.4231 3.34126 9.90531 2.31821 10.9123C1.55676 11.6775 0.96324 12.5929 0.575424 13.6003C-0.225866 15.366 -0.18867 17.3988 0.676826 19.134C0.740452 19.263 0.811814 19.375 0.880726 19.4923C1.56424 23.0966 3.47631 26.3525 6.29127 28.7052C6.45191 28.8458 6.67612 28.8885 6.87725 28.8169C7.07838 28.7452 7.22503 28.5704 7.26055 28.3599C7.29614 28.1494 7.21504 27.9361 7.04866 27.8024C4.91799 26.0207 3.33539 23.6723 2.48389 21.0287C2.58187 21.0809 2.68256 21.1277 2.78564 21.169C3.76479 21.6217 4.92353 21.402 5.66887 20.6221V20.6221Z" fill="white"/>
<path d="M32.4282 19.4072C33.2272 17.6408 33.1874 15.6083 32.3197 13.8746C32.2532 13.7397 32.1842 13.6118 32.1123 13.4898C31.4279 9.89663 29.5213 6.65088 26.7159 4.30341C26.5548 4.16489 26.3315 4.12376 26.1316 4.19583C25.9317 4.26789 25.7861 4.44199 25.7505 4.65148C25.7149 4.86096 25.7948 5.07335 25.9597 5.20742C28.081 6.98335 29.657 9.32277 30.5057 11.9558C30.4119 11.9128 30.317 11.8715 30.2186 11.8379C29.2402 11.3853 28.0822 11.6046 27.3371 12.3836C26.5677 13.1688 25.6677 13.8142 24.6772 14.2912C23.9105 14.718 23.0415 14.9268 22.1646 14.8947C22.7531 16.9332 22.1908 19.1305 20.6953 20.6359C22.3781 22.1952 24.5212 23.1671 26.8031 23.4057C28.2297 23.5853 29.6601 23.1029 30.6865 22.0962C31.4483 21.3311 32.0415 20.4152 32.4282 19.4072V19.4072Z" fill="white"/>
<path d="M13.873 0.687191C13.7497 0.74733 13.6318 0.810176 13.5194 0.875794C9.90643 1.55337 6.64274 3.46924 4.29019 6.29344C4.15488 6.45484 4.116 6.67612 4.18814 6.87394C4.26027 7.07176 4.43246 7.21615 4.6399 7.25257C4.84735 7.28905 5.05847 7.21209 5.19372 7.05069C6.97028 4.92134 9.31439 3.33942 11.954 2.48871C11.9071 2.5863 11.8652 2.68621 11.8285 2.78812C11.3817 3.76851 11.6036 4.92424 12.3819 5.6693C13.1632 6.44189 13.8081 7.34113 14.2892 8.32894C14.7147 9.09579 14.9225 9.96429 14.8903 10.8407C15.4147 10.6889 15.9576 10.611 16.5035 10.6091H16.5088C18.052 10.6103 19.5325 11.2195 20.6298 12.3045C22.1883 10.6222 23.1619 8.48171 23.4058 6.20152C23.5874 4.77521 23.1022 3.34471 22.0903 2.32319C21.3272 1.56059 20.4129 0.966163 19.4062 0.578194C17.6414 -0.229651 15.6047 -0.189494 13.873 0.687191V0.687191Z" fill="white"/>
<path d="M13.598 32.4282C15.3646 33.2273 17.3974 33.1872 19.1312 32.3192C19.2626 32.2549 19.3787 32.1819 19.4984 32.1112C23.0995 31.4356 26.3532 29.5278 28.7011 26.7153C28.8419 26.5543 28.8845 26.3296 28.8123 26.1283C28.74 25.9269 28.5644 25.7805 28.3532 25.7458C28.1421 25.7111 27.9288 25.7934 27.7958 25.961C26.0199 28.089 23.674 29.6666 21.0332 30.5088C21.0839 30.4148 21.1294 30.318 21.1694 30.2189C21.6166 29.2385 21.3948 28.0825 20.6165 27.3371C19.838 26.5641 19.1957 25.6651 18.7169 24.678C18.2905 23.9121 18.0818 23.0441 18.1134 22.1681C17.5873 22.3183 17.0428 22.3949 16.4956 22.3956H16.4838C14.9422 22.3928 13.464 21.7823 12.3699 20.6965C10.8116 22.3798 9.83984 24.522 9.59978 26.8031C9.41773 28.2293 9.90024 29.6602 10.9088 30.685C11.674 31.4469 12.59 32.0406 13.598 32.4282V32.4282Z" fill="white"/>
</svg>

<svg width="33" height="33" fill="none" xmlns="http://www.w3.org/2000/svg"><path d="M16.5 14.734a1.768 1.768 0 10-.01 3.536h.004a1.768 1.768 0 10.006-3.536z" fill="#fff"/><path d="M16.507 11.788h-.004a4.715 4.715 0 10-.017 9.429 4.601 4.601 0 003.344-1.38 4.71 4.71 0 00-3.323-8.05zm-.011 7.66h-.006a2.954 2.954 0 11.006 0z" fill="#fff"/><path d="M5.669 20.622a9.462 9.462 0 012.658-1.906 4.778 4.778 0 012.512-.6 5.848 5.848 0 011.466-5.739 10.587 10.587 0 00-6.111-2.773 4.684 4.684 0 00-3.876 1.308A7.766 7.766 0 00.575 13.6a6.438 6.438 0 00.102 5.534c.063.129.135.241.204.358a15.858 15.858 0 005.41 9.213.59.59 0 10.758-.903 14.708 14.708 0 01-4.565-6.773c.098.052.199.099.302.14a2.522 2.522 0 002.883-.547zm26.759-1.215a6.436 6.436 0 00-.316-5.917 15.844 15.844 0 00-5.396-9.187.59.59 0 10-.756.904 14.671 14.671 0 014.546 6.749 3.077 3.077 0 00-.287-.118 2.522 2.522 0 00-2.882.546 9.487 9.487 0 01-2.66 1.907 4.805 4.805 0 01-2.512.604 5.846 5.846 0 01-1.47 5.74 10.61 10.61 0 006.108 2.77 4.706 4.706 0 003.883-1.309 7.74 7.74 0 001.742-2.689zM13.873.687c-.123.06-.241.123-.354.189A15.803 15.803 0 004.29 6.293a.59.59 0 10.904.758 14.661 14.661 0 016.76-4.562 3.174 3.174 0 00-.126.3 2.534 2.534 0 00.554 2.88 9.736 9.736 0 011.907 2.66 4.81 4.81 0 01.601 2.512 5.875 5.875 0 011.613-.232h.006a5.868 5.868 0 014.12 1.696 10.646 10.646 0 002.777-6.103 4.672 4.672 0 00-1.316-3.879A7.73 7.73 0 0019.406.578a6.375 6.375 0 00-5.533.11zm-.275 31.741c1.767.8 3.8.76 5.533-.109.132-.064.248-.137.367-.208a15.778 15.778 0 009.203-5.396.59.59 0 10-.905-.754 14.577 14.577 0 01-6.763 4.548c.05-.094.096-.191.136-.29a2.534 2.534 0 00-.553-2.882 9.734 9.734 0 01-1.9-2.659 4.804 4.804 0 01-.603-2.51 5.92 5.92 0 01-1.617.228h-.012a5.855 5.855 0 01-4.114-1.7 10.626 10.626 0 00-2.77 6.107 4.688 4.688 0 001.309 3.882 7.757 7.757 0 002.689 1.743z" fill="#fff"/></svg>
